X:75
T:John the Shepherd of Glengarry
T:Iain an Cibeir
R:Air
S:Simon Fraser Collection
N:No.50
O:Scottish
M:3/8
L:1/8
Q:3/8=50
K:G Minor
(3B/A/G/|F<D B,|C<D B|F<D ~F|G>A(3B/A/G/|F<D B,|C<DF|DG^F|G2:|
|:B/c/|d<GB|(cc)f|dG>B|c2 d/e/|d>cB|A<dG|1 F<D^F|G2:|2 DBA|G2||

